img/thermal.svg

<svg height="48" viewBox="0 0 48 48" width="48" xmlns="http://www.w3.org/2000/svg"><g fill="none" fill-rule="evenodd"><circle cx="24" cy="22" fill="none" r="26"/><g fill="#333" fill-rule="nonzero"><path d="m25.1020169 17.0241145c0-1.6451025-1.3731398-2.9832982-3.0612006-2.9832982s-3.0612005 1.3381957-3.0612005 2.9832982v12.3012571c-.653662.7244753-1.0204321 1.6547982-1.0204321 2.6152338 0 2.1937496 1.8315545 3.9777619 4.0816326 3.9777619s4.0816327-1.783919 4.0816327-3.9777619c0-.9604356-.3666745-1.8907585-1.0204321-2.6152338zm-3.0612006 16.9054185c-1.1260435 0-2.0407685-.8924723-2.0407685-1.9888344 0-.5613262.2431742-1.0837763.6836044-1.4712321.2152406-.188414.3368277-.4564447.3368277-.7380867v-12.7072653c0-.5486472.4584148-.9944638 1.0204321-.9944638s1.0204321.4457234 1.0204321.9944638v12.7071721c0 .281642.121587.5496727.3368277.7380866.4404302.3874559.6836043.909906.6836043 1.4712322-.0001913 1.0964553-.9150119 1.9889276-2.0409598 1.9889276z"/><path d="m43.9999502 25.9999072h-4.0000498v-4.0000254h3.0312328c.4081894 0 .7773786-.2489996.9277543-.628874.1523445-.3798745.058594-.8134676-.2383136-1.0957484l-21.0312224-19.99984574c-.3867206-.36721821-.9921609-.36721821-1.3788814 0l-21.00009732 19.99993944c-.29690763.2821871-.39065806.7168115-.23831361 1.0957484.1503757.3798745.51956491.6288741.9277543.6288741h3.0000139v19.0000034c0 .5527492.44728332 1.0000298 1.00003588 1.0000298h27.28418895c.8942854 3.4405262 3.9985498 5.9999912 7.715942 5.9999912 4.4121767 0 8.0000058-3.5888385 8.0000058-7.999957v-10.0001104c0-2.206028-1.7949458-4.0000254-4.0000498-4.0000254zm-12.0000556 4.0000254v10.0000166h-26.00008921v-19.0000034c0-.5527492-.44728332-1.0000298-1.00003589-1.0000298h-1.50000695l18.50014825-17.61906793 18.5293983 17.61916173h-1.5293508c-.5527526 0-1.0000359.4472806-1.0000359 1.0000298v4.9999614h-1.999978c-2.205104-.0000938-4.0000498 1.7939036-4.0000498 3.9999316zm14.0001274 10.0000166c0 3.3086202-2.6913875 5.9999912-6.0000278 5.9999912s-6.0000278-2.691371-6.0000278-5.9999912v-10.0000166c0-1.1024984.8965354-1.9999658 1.999978-1.9999658h8.0000058c1.1035364 0 1.999978.8974674 1.999978 1.9999658v10.0000166z"/><path d="m41.7959184 32h-.9795919v-.9795918c0-.5414525-.4381393-.9795919-.9795918-.9795919s-.9795918.4381394-.9795918.9795919v.9795918h-.9795919c-.5414524 0-.9795918.4381394-.9795918.9795918 0 .5414525.4381394.9795919.9795918.9795919h.9795919v.9795918c0 .5414525.4381393.9795918.9795918.9795918s.9795918-.4381393.9795918-.9795918v-.9795918h.9795919c.5414524 0 .9795918-.4381394.9795918-.9795919 0-.5414524-.4381394-.9795918-.9795918-.9795918z"/><path d="m41.7959031 39.8367347h-3.9183368c-.5414609 0-.9796071.4381394-.9796071.9795918 0 .5414525.4381462.9795919.9796071.9795919h3.9183368c.5414609 0 .9796071-.4381394.9796071-.9795919 0-.5414524-.4381462-.9795918-.9796071-.9795918z"/></g></g></svg>

<?xml version="1.0" encoding="UTF-8"?>
<svg width="48px" height="48px" viewBox="0 0 48 48" version="1.1" xmlns="http://www.w3.org/2000/svg" xmlns:xlink="http://www.w3.org/1999/xlink">
    <!-- Generator: Sketch 51.2 (57519) - http://www.bohemiancoding.com/sketch -->
    <title>thermal</title>
    <desc>Created with Sketch.</desc>
    <defs></defs>
    <g id="Events" stroke="none" stroke-width="1" fill="none" fill-rule="evenodd">
        <g id="Assets" transform="translate(-246.000000, -327.000000)">
            <g id="Icon" transform="translate(244.000000, 323.000000)">
                <circle id="Oval" fill-opacity="0" fill="#D8D8D8" cx="26" cy="26" r="26"></circle>
                <g id="temperature" transform="translate(2.000000, 4.000000)" fill="#333333" fill-rule="nonzero">
                    <path d="M25.1020169,17.0241145 C25.1020169,15.379012 23.7288771,14.0408163 22.0408163,14.0408163 C20.3527555,14.0408163 18.9796158,15.379012 18.9796158,17.0241145 L18.9796158,29.3253716 C18.3259538,30.0498469 17.9591837,30.9801698 17.9591837,31.9406054 C17.9591837,34.134355 19.7907382,35.9183673 22.0408163,35.9183673 C24.2908944,35.9183673 26.122449,34.1344483 26.122449,31.9406054 C26.122449,30.9801698 25.7557745,30.0498469 25.1020169,29.3253716 L25.1020169,17.0241145 Z M22.0408163,33.929533 C20.9147728,33.929533 20.0000478,33.0370607 20.0000478,31.9406986 C20.0000478,31.3793724 20.243222,30.8569223 20.6836522,30.4694665 C20.8988928,30.2810525 21.0204799,30.0130218 21.0204799,29.7313798 L21.0204799,17.0241145 C21.0204799,16.4754673 21.4788947,16.0296507 22.040912,16.0296507 C22.6029293,16.0296507 23.0613441,16.4753741 23.0613441,17.0241145 L23.0613441,29.7312866 C23.0613441,30.0129286 23.1829311,30.2809593 23.3981718,30.4693732 C23.838602,30.8568291 24.0817761,31.3792792 24.0817761,31.9406054 C24.0815848,33.0370607 23.1667642,33.929533 22.0408163,33.929533 Z" id="Shape"></path>
                    <path d="M43.9999502,25.9999072 L39.9999004,25.9999072 L39.9999004,21.9998818 L43.0311332,21.9998818 C43.4393226,21.9998818 43.8085118,21.7508822 43.9588875,21.3710078 C44.111232,20.9911333 44.0174815,20.5575402 43.7205739,20.2752594 L22.6893515,0.275413659 C22.3026309,-0.091804553 21.6971906,-0.091804553 21.3104701,0.275413659 L0.310372776,20.2753531 C0.0134651499,20.5575402 -0.0802852845,20.9921646 0.0720591714,21.3711015 C0.222434868,21.750976 0.591624079,21.9999756 0.99981347,21.9999756 L3.99982737,21.9999756 L3.99982737,40.999979 C3.99982737,41.5527282 4.44711069,42.0000088 4.99986325,42.0000088 L32.2840522,42.0000088 C33.1783376,45.440535 36.282602,48 39.9999942,48 C44.4121709,48 48,44.4111615 48,40.000043 L48,29.9999326 C48,27.7939046 46.2050542,25.9999072 43.9999502,25.9999072 Z M31.9998946,29.9999326 L31.9998946,39.9999492 L5.99980539,39.9999492 L5.99980539,20.9999458 C5.99980539,20.4471966 5.55252207,19.999916 4.9997695,19.999916 L3.49976255,19.999916 L21.9999108,2.38084807 L40.5293091,20.0000098 L38.9999583,20.0000098 C38.4472057,20.0000098 37.9999224,20.4472904 37.9999224,21.0000396 L37.9999224,26.000001 L35.9999444,26.000001 C33.7948404,25.9999072 31.9998946,27.7939046 31.9998946,29.9999326 Z M46.000022,39.9999492 C46.000022,43.3085694 43.3086345,45.9999404 39.9999942,45.9999404 C36.6913539,45.9999404 33.9999664,43.3085694 33.9999664,39.9999492 L33.9999664,29.9999326 C33.9999664,28.8974342 34.8965018,27.9999668 35.9999444,27.9999668 L43.9999502,27.9999668 C45.1034866,27.9999668 45.9999282,28.8974342 45.9999282,29.9999326 L45.9999282,39.9999492 L46.000022,39.9999492 Z" id="Shape"></path>
                    <path d="M41.7959184,32 L40.8163265,32 L40.8163265,31.0204082 C40.8163265,30.4789557 40.3781872,30.0408163 39.8367347,30.0408163 C39.2952822,30.0408163 38.8571429,30.4789557 38.8571429,31.0204082 L38.8571429,32 L37.877551,32 C37.3360986,32 36.8979592,32.4381394 36.8979592,32.9795918 C36.8979592,33.5210443 37.3360986,33.9591837 37.877551,33.9591837 L38.8571429,33.9591837 L38.8571429,34.9387755 C38.8571429,35.480228 39.2952822,35.9183673 39.8367347,35.9183673 C40.3781872,35.9183673 40.8163265,35.480228 40.8163265,34.9387755 L40.8163265,33.9591837 L41.7959184,33.9591837 C42.3373708,33.9591837 42.7755102,33.5210443 42.7755102,32.9795918 C42.7755102,32.4381394 42.3373708,32 41.7959184,32 Z" id="Shape"></path>
                    <path d="M41.7959031,39.8367347 L37.8775663,39.8367347 C37.3361054,39.8367347 36.8979592,40.2748741 36.8979592,40.8163265 C36.8979592,41.357779 37.3361054,41.7959184 37.8775663,41.7959184 L41.7959031,41.7959184 C42.337364,41.7959184 42.7755102,41.357779 42.7755102,40.8163265 C42.7755102,40.2748741 42.337364,39.8367347 41.7959031,39.8367347 Z" id="Shape"></path>
                </g>
            </g>
        </g>
    </g>
</svg>
